groups/aromatics/coronene.svg

<svg height="256" viewBox="0 0 256 256" width="256" xmlns="http://www.w3.org/2000/svg"><path d="m0 0h256v256h-256z" fill="#fff"/><g fill="none" stroke-width="2"><path d="m232.2 224.4-36.6-21.1" stroke="#000"/><path d="m195.6 203.3-36.6 21" stroke="#000"/><path d="m189.3 199.6-30.3 17.4" stroke="#000"/><path d="m159 224.3-36.5-21.2" stroke="#000"/><path d="m122.5 203.1-36.7 21.1" stroke="#000"/><path d="m116.1 199.4-30.3 17.4" stroke="#000"/><path d="m85.8 224.2-36.5-21.2" stroke="#000"/><path d="m49.3 203 .1-42.3" stroke="#000"/><path d="m55.6 199.3.1-34.9" stroke="#000"/><path d="m49.4 160.7-36.6-21.2" stroke="#000"/><path d="m12.8 139.5.1-42.3" stroke="#000"/><path d="m19.1 135.9.1-35" stroke="#000"/><path d="m12.9 97.2 36.6-21" stroke="#000"/><path d="m49.5 76.2.1-42.3" stroke="#000"/><path d="m55.9 72.5v-34.9" stroke="#000"/><path d="m49.6 33.9 36.7-21" stroke="#000"/><path d="m86.3 12.9 36.5 21.2" stroke="#000"/><path d="m86.2 20.2 30.3 17.5" stroke="#000"/><path d="m122.8 34.1 36.6-21.1" stroke="#000"/><path d="m159.4 13 36.6 21.2" stroke="#000"/><path d="m159.4 20.3 30.2 17.6" stroke="#000"/><path d="m196 34.2-.1 42.3" stroke="#000"/><path d="m195.9 76.5 36.6 21.2" stroke="#000"/><path d="m195.9 83.8 30.2 17.5" stroke="#000"/><path d="m232.5 97.7-.1 42.2" stroke="#000"/><path d="m232.4 139.9-36.7 21.1" stroke="#000"/><path d="m226 136.3-30.3 17.4" stroke="#000"/><path d="m195.7 161-36.5-21.2" stroke="#000"/><path d="m159.2 139.8-36.7 21.1" stroke="#000"/><path d="m159.2 147.1-30.3 17.4" stroke="#000"/><path d="m122.5 160.9-36.5-21.3" stroke="#000"/><path d="m86 139.6.1-42.2" stroke="#000"/><path d="m79.7 136v-35" stroke="#000"/><path d="m86.1 97.4 36.6-21.1" stroke="#000"/><path d="m122.7 76.3 36.6 21.2" stroke="#000"/><path d="m129.1 72.7 30.2 17.5" stroke="#000"/><path d="m195.7 161-.1 42.3" stroke="#000"/><path d="m122.5 160.9v42.2" stroke="#000"/><path d="m86 139.6-36.6 21.1" stroke="#000"/><path d="m86.1 97.4-36.6-21.2" stroke="#000"/><path d="m122.7 76.3.1-42.2" stroke="#000"/><path d="m159.3 97.5 36.6-21" stroke="#000"/><path d="m159.3 97.5-.1 42.3" stroke="#000"/><path d="m160.8 223.3-1.8 1-1.8-1.1" stroke="#000" stroke-miterlimit="10"/><path d="m87.7 223.1-1.9 1.1-1.8-1.1" stroke="#000" stroke-miterlimit="10"/><path d="m51.1 204-1.8-1v-2.2" stroke="#000" stroke-miterlimit="10"/><path d="m14.6 140.6-1.8-1.1v-2.1" stroke="#000" stroke-miterlimit="10"/><path d="m12.9 99.4v-2.2l1.8-1" stroke="#000" stroke-miterlimit="10"/><path d="m49.6 36v-2.1l1.8-1" stroke="#000" stroke-miterlimit="10"/><path d="m84.4 13.9 1.9-1 1.8 1" stroke="#000" stroke-miterlimit="10"/><path d="m157.6 14.1 1.8-1.1 1.9 1.1" stroke="#000" stroke-miterlimit="10"/><path d="m194.2 33.2 1.8 1v2.1" stroke="#000" stroke-miterlimit="10"/><path d="m230.6 96.6 1.9 1.1v2.1" stroke="#000" stroke-miterlimit="10"/><path d="m232.4 137.8v2.1l-1.9 1.1" stroke="#000" stroke-miterlimit="10"/><path d="m242.8 206.17c-1.371-.794-2.431 1.033-1.06 1.828s.311 2.623-1.06 1.828-2.431 1.033-1.06 1.828.311 2.623-1.06 1.828c-1.37-.795-2.43 1.033-1.06 1.827 1.371.795.311 2.623-1.059 1.828-1.371-.795-2.431 1.033-1.06 1.828 1.37.795.311 2.623-1.06 1.828s-2.431 1.033-1.06 1.828.311 2.622-1.06 1.827c-1.371-.794-2.431 1.033-1.06 1.828s.311 2.623-1.06 1.828-2.431 1.033-1.06 1.828.311 2.623-1.06 1.828-2.43 1.032-1.06 1.827c1.371.795.311 2.623-1.06 1.828-1.37-.795-2.43 1.033-1.059 1.828 1.37.795.31 2.623-1.06 1.828-1.371-.795-2.431 1.033-1.06 1.828s.311 2.622-1.06 1.827" stroke="#7f7f7f"/></g></svg>

<?xml version='1.0' encoding='iso-8859-1'?>
<svg version='1.1' baseProfile='full'
              xmlns='http://www.w3.org/2000/svg'
                      xmlns:rdkit='http://www.rdkit.org/xml'
                      xmlns:xlink='http://www.w3.org/1999/xlink'
                  xml:space='preserve'
width='256px' height='256px' viewBox='0 0 256 256'>
<!-- END OF HEADER -->
<rect style='opacity:1.0;fill:#FFFFFF;stroke:none' width='256.0' height='256.0' x='0.0' y='0.0'> </rect>
<path class='bond-0 atom-0 atom-1' d='M 232.2,224.4 L 195.6,203.3' style='fill:none;fill-rule:evenodd;stroke:#000000;stroke-width:2.0px;stroke-linecap:butt;stroke-linejoin:miter;stroke-opacity:1' />
<path class='bond-1 atom-1 atom-2' d='M 195.6,203.3 L 159.0,224.3' style='fill:none;fill-rule:evenodd;stroke:#000000;stroke-width:2.0px;stroke-linecap:butt;stroke-linejoin:miter;stroke-opacity:1' />
<path class='bond-1 atom-1 atom-2' d='M 189.3,199.6 L 159.0,217.0' style='fill:none;fill-rule:evenodd;stroke:#000000;stroke-width:2.0px;stroke-linecap:butt;stroke-linejoin:miter;stroke-opacity:1' />
<path class='bond-2 atom-2 atom-3' d='M 159.0,224.3 L 122.5,203.1' style='fill:none;fill-rule:evenodd;stroke:#000000;stroke-width:2.0px;stroke-linecap:butt;stroke-linejoin:miter;stroke-opacity:1' />
<path class='bond-3 atom-3 atom-4' d='M 122.5,203.1 L 85.8,224.2' style='fill:none;fill-rule:evenodd;stroke:#000000;stroke-width:2.0px;stroke-linecap:butt;stroke-linejoin:miter;stroke-opacity:1' />
<path class='bond-3 atom-3 atom-4' d='M 116.1,199.4 L 85.8,216.8' style='fill:none;fill-rule:evenodd;stroke:#000000;stroke-width:2.0px;stroke-linecap:butt;stroke-linejoin:miter;stroke-opacity:1' />
<path class='bond-4 atom-4 atom-5' d='M 85.8,224.2 L 49.3,203.0' style='fill:none;fill-rule:evenodd;stroke:#000000;stroke-width:2.0px;stroke-linecap:butt;stroke-linejoin:miter;stroke-opacity:1' />
<path class='bond-5 atom-5 atom-6' d='M 49.3,203.0 L 49.4,160.7' style='fill:none;fill-rule:evenodd;stroke:#000000;stroke-width:2.0px;stroke-linecap:butt;stroke-linejoin:miter;stroke-opacity:1' />
<path class='bond-5 atom-5 atom-6' d='M 55.6,199.3 L 55.7,164.4' style='fill:none;fill-rule:evenodd;stroke:#000000;stroke-width:2.0px;stroke-linecap:butt;stroke-linejoin:miter;stroke-opacity:1' />
<path class='bond-6 atom-6 atom-7' d='M 49.4,160.7 L 12.8,139.5' style='fill:none;fill-rule:evenodd;stroke:#000000;stroke-width:2.0px;stroke-linecap:butt;stroke-linejoin:miter;stroke-opacity:1' />
<path class='bond-7 atom-7 atom-8' d='M 12.8,139.5 L 12.9,97.2' style='fill:none;fill-rule:evenodd;stroke:#000000;stroke-width:2.0px;stroke-linecap:butt;stroke-linejoin:miter;stroke-opacity:1' />
<path class='bond-7 atom-7 atom-8' d='M 19.1,135.9 L 19.2,100.9' style='fill:none;fill-rule:evenodd;stroke:#000000;stroke-width:2.0px;stroke-linecap:butt;stroke-linejoin:miter;stroke-opacity:1' />
<path class='bond-8 atom-8 atom-9' d='M 12.9,97.2 L 49.5,76.2' style='fill:none;fill-rule:evenodd;stroke:#000000;stroke-width:2.0px;stroke-linecap:butt;stroke-linejoin:miter;stroke-opacity:1' />
<path class='bond-9 atom-9 atom-10' d='M 49.5,76.2 L 49.6,33.9' style='fill:none;fill-rule:evenodd;stroke:#000000;stroke-width:2.0px;stroke-linecap:butt;stroke-linejoin:miter;stroke-opacity:1' />
<path class='bond-9 atom-9 atom-10' d='M 55.9,72.5 L 55.9,37.6' style='fill:none;fill-rule:evenodd;stroke:#000000;stroke-width:2.0px;stroke-linecap:butt;stroke-linejoin:miter;stroke-opacity:1' />
<path class='bond-10 atom-10 atom-11' d='M 49.6,33.9 L 86.3,12.9' style='fill:none;fill-rule:evenodd;stroke:#000000;stroke-width:2.0px;stroke-linecap:butt;stroke-linejoin:miter;stroke-opacity:1' />
<path class='bond-11 atom-11 atom-12' d='M 86.3,12.9 L 122.8,34.1' style='fill:none;fill-rule:evenodd;stroke:#000000;stroke-width:2.0px;stroke-linecap:butt;stroke-linejoin:miter;stroke-opacity:1' />
<path class='bond-11 atom-11 atom-12' d='M 86.2,20.2 L 116.5,37.7' style='fill:none;fill-rule:evenodd;stroke:#000000;stroke-width:2.0px;stroke-linecap:butt;stroke-linejoin:miter;stroke-opacity:1' />
<path class='bond-12 atom-12 atom-13' d='M 122.8,34.1 L 159.4,13.0' style='fill:none;fill-rule:evenodd;stroke:#000000;stroke-width:2.0px;stroke-linecap:butt;stroke-linejoin:miter;stroke-opacity:1' />
<path class='bond-13 atom-13 atom-14' d='M 159.4,13.0 L 196.0,34.2' style='fill:none;fill-rule:evenodd;stroke:#000000;stroke-width:2.0px;stroke-linecap:butt;stroke-linejoin:miter;stroke-opacity:1' />
<path class='bond-13 atom-13 atom-14' d='M 159.4,20.3 L 189.6,37.9' style='fill:none;fill-rule:evenodd;stroke:#000000;stroke-width:2.0px;stroke-linecap:butt;stroke-linejoin:miter;stroke-opacity:1' />
<path class='bond-14 atom-14 atom-15' d='M 196.0,34.2 L 195.9,76.5' style='fill:none;fill-rule:evenodd;stroke:#000000;stroke-width:2.0px;stroke-linecap:butt;stroke-linejoin:miter;stroke-opacity:1' />
<path class='bond-15 atom-15 atom-16' d='M 195.9,76.5 L 232.5,97.7' style='fill:none;fill-rule:evenodd;stroke:#000000;stroke-width:2.0px;stroke-linecap:butt;stroke-linejoin:miter;stroke-opacity:1' />
<path class='bond-15 atom-15 atom-16' d='M 195.9,83.8 L 226.1,101.3' style='fill:none;fill-rule:evenodd;stroke:#000000;stroke-width:2.0px;stroke-linecap:butt;stroke-linejoin:miter;stroke-opacity:1' />
<path class='bond-16 atom-16 atom-17' d='M 232.5,97.7 L 232.4,139.9' style='fill:none;fill-rule:evenodd;stroke:#000000;stroke-width:2.0px;stroke-linecap:butt;stroke-linejoin:miter;stroke-opacity:1' />
<path class='bond-17 atom-17 atom-18' d='M 232.4,139.9 L 195.7,161.0' style='fill:none;fill-rule:evenodd;stroke:#000000;stroke-width:2.0px;stroke-linecap:butt;stroke-linejoin:miter;stroke-opacity:1' />
<path class='bond-17 atom-17 atom-18' d='M 226.0,136.3 L 195.7,153.7' style='fill:none;fill-rule:evenodd;stroke:#000000;stroke-width:2.0px;stroke-linecap:butt;stroke-linejoin:miter;stroke-opacity:1' />
<path class='bond-18 atom-18 atom-19' d='M 195.7,161.0 L 159.2,139.8' style='fill:none;fill-rule:evenodd;stroke:#000000;stroke-width:2.0px;stroke-linecap:butt;stroke-linejoin:miter;stroke-opacity:1' />
<path class='bond-19 atom-19 atom-20' d='M 159.2,139.8 L 122.5,160.9' style='fill:none;fill-rule:evenodd;stroke:#000000;stroke-width:2.0px;stroke-linecap:butt;stroke-linejoin:miter;stroke-opacity:1' />
<path class='bond-19 atom-19 atom-20' d='M 159.2,147.1 L 128.9,164.5' style='fill:none;fill-rule:evenodd;stroke:#000000;stroke-width:2.0px;stroke-linecap:butt;stroke-linejoin:miter;stroke-opacity:1' />
<path class='bond-20 atom-20 atom-21' d='M 122.5,160.9 L 86.0,139.6' style='fill:none;fill-rule:evenodd;stroke:#000000;stroke-width:2.0px;stroke-linecap:butt;stroke-linejoin:miter;stroke-opacity:1' />
<path class='bond-21 atom-21 atom-22' d='M 86.0,139.6 L 86.1,97.4' style='fill:none;fill-rule:evenodd;stroke:#000000;stroke-width:2.0px;stroke-linecap:butt;stroke-linejoin:miter;stroke-opacity:1' />
<path class='bond-21 atom-21 atom-22' d='M 79.7,136.0 L 79.7,101.0' style='fill:none;fill-rule:evenodd;stroke:#000000;stroke-width:2.0px;stroke-linecap:butt;stroke-linejoin:miter;stroke-opacity:1' />
<path class='bond-22 atom-22 atom-23' d='M 86.1,97.4 L 122.7,76.3' style='fill:none;fill-rule:evenodd;stroke:#000000;stroke-width:2.0px;stroke-linecap:butt;stroke-linejoin:miter;stroke-opacity:1' />
<path class='bond-23 atom-23 atom-24' d='M 122.7,76.3 L 159.3,97.5' style='fill:none;fill-rule:evenodd;stroke:#000000;stroke-width:2.0px;stroke-linecap:butt;stroke-linejoin:miter;stroke-opacity:1' />
<path class='bond-23 atom-23 atom-24' d='M 129.1,72.7 L 159.3,90.2' style='fill:none;fill-rule:evenodd;stroke:#000000;stroke-width:2.0px;stroke-linecap:butt;stroke-linejoin:miter;stroke-opacity:1' />
<path class='bond-24 atom-18 atom-1' d='M 195.7,161.0 L 195.6,203.3' style='fill:none;fill-rule:evenodd;stroke:#000000;stroke-width:2.0px;stroke-linecap:butt;stroke-linejoin:miter;stroke-opacity:1' />
<path class='bond-25 atom-20 atom-3' d='M 122.5,160.9 L 122.5,203.1' style='fill:none;fill-rule:evenodd;stroke:#000000;stroke-width:2.0px;stroke-linecap:butt;stroke-linejoin:miter;stroke-opacity:1' />
<path class='bond-26 atom-21 atom-6' d='M 86.0,139.6 L 49.4,160.7' style='fill:none;fill-rule:evenodd;stroke:#000000;stroke-width:2.0px;stroke-linecap:butt;stroke-linejoin:miter;stroke-opacity:1' />
<path class='bond-27 atom-22 atom-9' d='M 86.1,97.4 L 49.5,76.2' style='fill:none;fill-rule:evenodd;stroke:#000000;stroke-width:2.0px;stroke-linecap:butt;stroke-linejoin:miter;stroke-opacity:1' />
<path class='bond-28 atom-23 atom-12' d='M 122.7,76.3 L 122.8,34.1' style='fill:none;fill-rule:evenodd;stroke:#000000;stroke-width:2.0px;stroke-linecap:butt;stroke-linejoin:miter;stroke-opacity:1' />
<path class='bond-29 atom-24 atom-15' d='M 159.3,97.5 L 195.9,76.5' style='fill:none;fill-rule:evenodd;stroke:#000000;stroke-width:2.0px;stroke-linecap:butt;stroke-linejoin:miter;stroke-opacity:1' />
<path class='bond-30 atom-24 atom-19' d='M 159.3,97.5 L 159.2,139.8' style='fill:none;fill-rule:evenodd;stroke:#000000;stroke-width:2.0px;stroke-linecap:butt;stroke-linejoin:miter;stroke-opacity:1' />
<path d='M 160.8,223.3 L 159.0,224.3 L 157.2,223.2' style='fill:none;stroke:#000000;stroke-width:2.0px;stroke-linecap:butt;stroke-linejoin:miter;stroke-miterlimit:10;stroke-opacity:1;' />
<path d='M 87.7,223.1 L 85.8,224.2 L 84.0,223.1' style='fill:none;stroke:#000000;stroke-width:2.0px;stroke-linecap:butt;stroke-linejoin:miter;stroke-miterlimit:10;stroke-opacity:1;' />
<path d='M 51.1,204.0 L 49.3,203.0 L 49.3,200.8' style='fill:none;stroke:#000000;stroke-width:2.0px;stroke-linecap:butt;stroke-linejoin:miter;stroke-miterlimit:10;stroke-opacity:1;' />
<path d='M 14.6,140.6 L 12.8,139.5 L 12.8,137.4' style='fill:none;stroke:#000000;stroke-width:2.0px;stroke-linecap:butt;stroke-linejoin:miter;stroke-miterlimit:10;stroke-opacity:1;' />
<path d='M 12.9,99.4 L 12.9,97.2 L 14.7,96.2' style='fill:none;stroke:#000000;stroke-width:2.0px;stroke-linecap:butt;stroke-linejoin:miter;stroke-miterlimit:10;stroke-opacity:1;' />
<path d='M 49.6,36.0 L 49.6,33.9 L 51.4,32.9' style='fill:none;stroke:#000000;stroke-width:2.0px;stroke-linecap:butt;stroke-linejoin:miter;stroke-miterlimit:10;stroke-opacity:1;' />
<path d='M 84.4,13.9 L 86.3,12.9 L 88.1,13.9' style='fill:none;stroke:#000000;stroke-width:2.0px;stroke-linecap:butt;stroke-linejoin:miter;stroke-miterlimit:10;stroke-opacity:1;' />
<path d='M 157.6,14.1 L 159.4,13.0 L 161.3,14.1' style='fill:none;stroke:#000000;stroke-width:2.0px;stroke-linecap:butt;stroke-linejoin:miter;stroke-miterlimit:10;stroke-opacity:1;' />
<path d='M 194.2,33.2 L 196.0,34.2 L 196.0,36.3' style='fill:none;stroke:#000000;stroke-width:2.0px;stroke-linecap:butt;stroke-linejoin:miter;stroke-miterlimit:10;stroke-opacity:1;' />
<path d='M 230.6,96.6 L 232.5,97.7 L 232.5,99.8' style='fill:none;stroke:#000000;stroke-width:2.0px;stroke-linecap:butt;stroke-linejoin:miter;stroke-miterlimit:10;stroke-opacity:1;' />
<path d='M 232.4,137.8 L 232.4,139.9 L 230.5,141.0' style='fill:none;stroke:#000000;stroke-width:2.0px;stroke-linecap:butt;stroke-linejoin:miter;stroke-miterlimit:10;stroke-opacity:1;' />
<path class='atom-1' d='M242.8,206.17 C241.429,205.376 240.369,207.203 241.74,207.998 C243.111,208.793 242.051,210.621 240.68,209.826 C239.309,209.031 238.249,210.859 239.62,211.654 C240.991,212.449 239.931,214.277 238.56,213.482 C237.19,212.687 236.13,214.515 237.5,215.309 C238.871,216.104 237.811,217.932 236.441,217.137 C235.07,216.342 234.01,218.17 235.381,218.965 C236.751,219.76 235.692,221.588 234.321,220.793 C232.95,219.998 231.89,221.826 233.261,222.621 C234.632,223.416 233.572,225.243 232.201,224.448 C230.83,223.654 229.77,225.481 231.141,226.276 C232.512,227.071 231.452,228.899 230.081,228.104 C228.71,227.309 227.65,229.137 229.021,229.932 C230.392,230.727 229.332,232.555 227.961,231.76 C226.59,230.965 225.531,232.792 226.901,233.587 C228.272,234.382 227.212,236.21 225.841,235.415 C224.471,234.62 223.411,236.448 224.782,237.243 C226.152,238.038 225.092,239.866 223.722,239.071 C222.351,238.276 221.291,240.104 222.662,240.899 C224.033,241.694 222.973,243.521 221.602,242.726' style='fill:none;stroke:#7F7F7F;stroke-width:2.0px;stroke-linecap:butt;stroke-linejoin:miter;stroke-opacity:1' />
</svg>
